X: 11
T:Neil Gow's Lament for the Death of His 2nd Wife
M:6/8
L:1/8
C:Neil Gow
R:Air
K:D
D/B,/|"D"A,>B,D D>ED|"D7"EFA "G"B2 d|"D"AFD "Em"E>DE|"F#m"FDB, "G"B,2D/B
,/|
"D"A,>B,D D>ED|"D7"EFA "G"d2 c/B/|"F#m"AFD "Bm"B,2A,|"G"B,DD "D"D2:||
A/4B/4c/|"D"dfd "A7"ecA|"G"B/A/B/c/ d"D" B/A/G/F/E/D/|"Em"E>DE "F#m"FED|
"Bm"FDB,"G" B,2 A/4B/4c/|"D"dfd "A7"ecA|"G"B/A/B/c/ d "D"B/A/G/F/E/D/|"E
m"E>DE "F#m"FDB,|!
"G"A,DD "D"D2 A/4B/4c/|"D"dfd "A7"ecA|"G"B/A/B/c/ d "D"B/A/G/F/E/D/|
"D"F/D/A/F/d/A/ "Bm"B/A/G/F/E/D/|!"Em7"FEE E2"A7"D/B,/|
"D"A,>B,D D>ED|"D7"EFA "G"d2 c/B/|"F#m"AFD "Bm"B,2A,|"G"B,DD "D"D2||
